Papirus/24x24/mimetypes/application-x-genesis-rom.svg

<svg width="24" height="24" version="1.1" xmlns="http://www.w3.org/2000/svg">
 <path d="m5 2.5c-0.554 0-1 0.446-1 1v18c0 0.554 0.446 1 1 1h14c0.554 0 1-0.446 1-1v-13l-6-6z" style="opacity:.2"/>
 <path d="m5 2c-0.554 0-1 0.446-1 1v18c0 0.554 0.446 1 1 1h14c0.554 0 1-0.446 1-1v-13l-5-1-1-5z" style="fill:#4f4f4f;stop-color:#000000"/>
 <path d="m20 8.5-6-6v5c0 0.554 0.446 1 1 1z" style="opacity:.2"/>
 <path d="m20 8-6-6v5c0 0.554 0.446 1 1 1z" style="fill:#696969;stop-color:#000000"/>
 <path d="m5 2c-0.554 0-1 0.446-1 1v0.5c0-0.554 0.446-1 1-1h9v-0.5h-9z" style="fill:#ffffff;opacity:.2"/>
 <g transform="translate(-.0019525)">
  <path d="m11.498047 9.5000005c-1.915227 0-3.498047 1.5925915-3.498047 3.5078145 0 1.91523 1.58282 3.498047 3.498047 3.498047h1.003907c0.293896 0 0.501951 0.200239 0.501951 0.494139 0 0.293896-0.208063 0.501959-0.501951 0.501955h-4.501954v1.248045h4.501954c0.969456 5e-6 1.749997-0.780541 1.749997-1.75 4e-6 -0.969457-0.780541-1.748047-1.749997-1.748047h-1.003907c-1.239678 0-2.24414-1.004462-2.24414-2.24414 0-1.239677 1.004462-2.251948 2.24414-2.251952h4.503905v-1.2558615zm0 1.7500015c-0.969456 4e-6 -1.750001 0.788353-1.750001 1.757813 0 0.969457 0.780545 1.75 1.750001 1.75h1.003907c1.239674 0 2.251952 1.002508 2.251952 2.242186s-1.012274 2.251956-2.251952 2.251952h-4.501954v1.255862h4.501954c1.915227 7e-6 3.499998-1.592587 3.499998-3.507814s-1.584775-3.498047-3.499998-3.498047h-1.003907c-0.293896 0-0.494143-0.200239-0.494143-0.494139 0-0.293896 0.200239-0.501951 0.494143-0.501951h4.503905v-1.255862z" style="opacity:.2;stop-color:#000000"/>
  <path d="m11.496095 9c-1.9152265 0-3.4980465 1.592591-3.4980465 3.507814 0 1.915231 1.58282 3.498048 3.4980465 3.498048h1.003907c0.293896 0 0.501951 0.200239 0.501951 0.494139 0 0.293896-0.208063 0.501959-0.501951 0.501955h-4.5019535v1.248046h4.5019535c0.969456 4e-6 1.749997-0.780541 1.749997-1.750001 4e-6 -0.969456-0.780541-1.748047-1.749997-1.748047h-1.003907c-1.239678 0-2.2441395-1.004462-2.2441395-2.24414 0-1.239677 1.0044615-2.251948 2.2441395-2.251952h4.503905v-1.255862zm0 1.750001c-0.969456 4e-6 -1.7500005 0.788353-1.7500005 1.757813 0 0.969457 0.7805445 1.750001 1.7500005 1.750001h1.003907c1.239674 0 2.251952 1.002508 2.251952 2.242186s-1.012274 2.251956-2.251952 2.251952h-4.5019535v1.255862h4.5019535c1.915227 7e-6 3.499998-1.592587 3.499998-3.507814s-1.584775-3.498048-3.499998-3.498048h-1.003907c-0.293896 0-0.494143-0.200239-0.494143-0.494139 0-0.293896 0.200239-0.501951 0.494143-0.501951h4.503905v-1.255862z" style="fill:#ffffff"/>
 </g>
</svg>

<svg xmlns="http://www.w3.org/2000/svg" width="24" height="24" version="1.1">
 <path style="opacity:0.2" d="M 5,2.5 C 4.446,2.5 4,2.946 4,3.5 V 21.5 C 4,22.054 4.446,22.5 5,22.5 H 19 C 19.554,22.5 20,22.054 20,21.5 V 8.5 L 14,2.5 Z"/>
 <path style="fill:#4f4f4f" d="M 5,2 C 4.446,2 4,2.446 4,3 V 21 C 4,21.554 4.446,22 5,22 H 19 C 19.554,22 20,21.554 20,21 V 8 L 15,7 14,2 Z"/>
 <path style="opacity:0.2" d="M 20,8.5 14,2.5 V 7.5 C 14,8.054 14.446,8.5 15,8.5 Z"/>
 <path style="fill:#696969" d="M 20,8 14,2 V 7 C 14,7.554 14.446,8 15,8 Z"/>
 <path style="opacity:0.1;fill:#ffffff" d="M 5,2 C 4.446,2 4,2.446 4,3 V 3.5 C 4,2.946 4.446,2.5 5,2.5 H 14 V 2 Z"/>
 <path style="opacity:0.1" d="M 11.5,9.5 C 9.58,9.5 8,11.09 8,13.01 8,14.93 9.58,16.51 11.5,16.51 H 12.5 C 12.79,16.51 13,16.71 13,17 13,17.29 12.79,17.5 12.5,17.5 H 8 V 18.75 H 12.5 C 13.47,18.75 14.25,17.97 14.25,17 14.25,16.03 13.47,15.25 12.5,15.25 H 11.5 C 10.26,15.25 9.26,14.25 9.26,13.01 9.26,11.77 10.26,10.76 11.5,10.76 H 16 V 9.5 Z M 11.5,11.25 C 10.53,11.25 9.75,12.04 9.75,13.01 9.75,13.98 10.53,14.76 11.5,14.76 H 12.5 C 13.74,14.76 14.75,15.76 14.75,17 14.75,18.24 13.74,19.25 12.5,19.25 H 8 V 20.51 H 12.5 C 14.42,20.51 16,18.92 16,17 16,15.08 14.42,13.5 12.5,13.5 H 11.5 C 11.21,13.5 11.01,13.3 11.01,13.01 11.01,12.72 11.21,12.51 11.5,12.51 H 16 V 11.25 Z"/>
 <path style="fill:#ffffff" d="M 11.5,9 C 9.58,9 8,10.59 8,12.51 8,14.43 9.58,16.01 11.5,16.01 H 12.5 C 12.79,16.01 13,16.21 13,16.5 13,16.79 12.79,17 12.5,17 H 8 V 18.25 H 12.5 C 13.47,18.25 14.25,17.47 14.25,16.5 14.25,15.53 13.47,14.75 12.5,14.75 H 11.5 C 10.26,14.75 9.26,13.75 9.26,12.51 9.26,11.27 10.26,10.26 11.5,10.26 H 16 V 9 Z M 11.5,10.75 C 10.53,10.75 9.75,11.54 9.75,12.51 9.75,13.48 10.53,14.26 11.5,14.26 H 12.5 C 13.74,14.26 14.75,15.26 14.75,16.5 14.75,17.74 13.74,18.75 12.5,18.75 H 8 V 20.01 H 12.5 C 14.42,20.01 16,18.42 16,16.5 16,14.58 14.42,13 12.5,13 H 11.5 C 11.21,13 11.01,12.8 11.01,12.51 11.01,12.22 11.21,12.01 11.5,12.01 H 16 V 10.75 Z"/>
</svg>
